X: 18
T:Castle,  The
T:Russell's Reel
M:C|
L:1/8
S:Tulla Ceili Band
R:reel
K:ADor
GA|BE~E2 G3A|BE~E2(3Bcd ed|BE~E2 d3B|ABAF DEFA|! 
BE~E2 ~G3A|BE~E2(3Bcd ed|BE~E2 d3B|ABAF DEFA||! 
~B3A ~G3A|BG~G2 (3Bcd gd|BcBA G2FG|ADFD ADFD|! 
~B3A~G3A |BG~G2 (3Bcd g2|gbaf g3e|dedBA2||
